src/Pure-Dark/16/symbolic/places/playlist-symbolic.svg

<?xml version="1.0" encoding="UTF-8" standalone="no"?>
<svg
   width="16"
   height="16"
   version="1.1"
   id="svg1"
   sodipodi:docname="playlist-symbolic.svg"
   inkscape:version="1.4.2 (ebf0e940d0, 2025-05-08)"
   xmlns:inkscape="http://www.inkscape.org/namespaces/inkscape"
   xmlns:sodipodi="http://sodipodi.sourceforge.net/DTD/sodipodi-0.dtd"
   xmlns="http://www.w3.org/2000/svg"
   xmlns:svg="http://www.w3.org/2000/svg">
  <defs
     id="defs1">
     <style
        id="current-color-scheme"
        type="text/css">
        .ColorScheme-Text { color:#f2f2f2; }
        .ColorScheme-NeutralText { color:#f67400; }
        .ColorScheme-PositiveText { color:#37c837; }
        .ColorScheme-NegativeText { color:#f44336; }
        .ColorScheme-Highlight { color:#3daee9; }
     </style>
  </defs>
  <sodipodi:namedview
     id="namedview1"
     pagecolor="#ffffff"
     bordercolor="#000000"
     borderopacity="0.25"
     inkscape:showpageshadow="2"
     inkscape:pageopacity="0.0"
     inkscape:pagecheckerboard="0"
     inkscape:deskcolor="#d1d1d1"
     inkscape:zoom="49.6875"
     inkscape:cx="8"
     inkscape:cy="8"
     inkscape:window-width="1920"
     inkscape:window-height="1010"
     inkscape:window-x="0"
     inkscape:window-y="0"
     inkscape:window-maximized="1"
     inkscape:current-layer="svg1" />
  <path
     id="path1"
     style="fill:currentColor"
     class="ColorScheme-Text"
     d="M 12.339844 1.0019531 C 11.959834 1.0013635 11.907109 1.3536719 11.951172 1.6386719 C 11.947172 4.6646719 11.961313 7.6927969 11.945312 10.716797 C 11.835313 10.820797 11.623422 10.651313 11.482422 10.695312 C 9.9484219 10.611313 8.2711875 11.613547 8.1171875 13.060547 C 7.9371875 14.210547 9.2852812 15.156516 10.488281 14.978516 C 12.004281 14.833516 13.188234 13.45475 12.990234 12.09375 C 12.994234 9.69775 12.981094 7.2992969 12.996094 4.9042969 C 13.099094 4.7982969 13.254281 5.0261094 13.363281 5.0371094 C 14.583281 5.6871094 15.272703 6.75875 15.345703 8.09375 C 15.425703 9.13675 15.075641 10.156047 14.681641 11.123047 C 16.002641 9.6580469 16.425812 7.5200625 15.507812 5.7890625 C 15.037812 4.7840625 14.366437 4.1664219 13.773438 3.2324219 C 13.336438 2.6094219 13.003438 1.9117813 12.898438 1.1757812 C 12.813437 1.0217813 12.586922 1.0038594 12.419922 1.0058594 C 12.391609 1.0025469 12.365178 1.0019924 12.339844 1.0019531 z M 1.5 2 A 0.5 0.5 0 0 0 1.5 3 L 8.5 3 A 0.5 0.5 0 0 0 8.5 2 L 1.5 2 z M 1.5 5 A 0.5 0.5 0 0 0 1.5 6 L 8.5 6 A 0.5 0.5 0 0 0 8.5 5 L 1.5 5 z M 1.5 8 A 0.5 0.5 0 0 0 1.5 9 L 8.5 9 A 0.5 0.5 0 0 0 8.5 8 L 1.5 8 z M 1.5 11 A 0.5 0.5 0 0 0 1.5 12 L 5.5 12 A 0.5 0.5 0 0 0 5.5 11 L 1.5 11 z " />
</svg>

<svg width="16" height="16" version="1.1" xmlns="http://www.w3.org/2000/svg">
 <path d="M12.42 1.006c-.453-.053-.516.329-.469.633-.004 3.026.01 6.054-.006 9.078-.11.104-.322-.066-.463-.022-1.534-.084-3.211.919-3.365 2.366-.18 1.15 1.168 2.096 2.371 1.918 1.516-.145 2.7-1.524 2.502-2.885.004-2.396-.009-4.795.006-7.19.103-.106.258.122.367.133 1.22.65 1.91 1.722 1.983 3.057.08 1.043-.27 2.062-.664 3.029 1.321-1.465 1.744-3.603.826-5.334-.47-1.005-1.142-1.623-1.735-2.557-.437-.623-.77-1.32-.875-2.056-.085-.154-.311-.172-.478-.17zM1.5 2a.499.499 0 1 0 0 1h7a.499.499 0 1 0 0-1h-7zm0 3a.499.499 0 1 0 0 1h7a.499.499 0 1 0 0-1h-7zm0 3a.499.499 0 1 0 0 1h7a.499.499 0 1 0 0-1h-7zm0 3a.499.499 0 1 0 0 1h4a.499.499 0 1 0 0-1h-4z" fill="#f2f2f2"/>
</svg>
